X:31
T:Youghal Harbour
Z: id:dc-setdance-32
M:C|
L:1/8
K:G Major
ef|gfed B2AB|dB (3ABA GEDE|G2GA Bdef|gfed B2AB|dB (3ABA G2G2|G6:|!
A2|Bdef g2fg|agfg e3f|fedB dBAB|d2de d2ef|!
g2ga gfed|(3BdB AG EDB,D|G2GA BABd|edef g2|]!

